img/image/design/documents-money.svg

<svg xmlns="http://www.w3.org/2000/svg" fill="none" viewBox="0.38 0.17 23.34 23.32">
<path fill-rule="evenodd" clip-rule="evenodd" d="M0.541373 0.325186C0.438832 0.427727 0.381226 0.566801 0.381226 0.711816V11.1982C0.381226 18.7841 0.398594 21.949 0.440671 22.0415C0.47338 22.1133 0.569644 22.213 0.654621 22.2632C0.79614 22.3468 1.30825 22.3544 6.79149 22.3544C12.2747 22.3544 12.7868 22.3468 12.9284 22.2632C13.2454 22.0759 13.3022 21.6246 13.0416 21.364C12.9391 21.2615 12.8 21.2039 12.655 21.2039H7.20663C4.0725 21.2039 1.53179 18.6632 1.53179 15.529V11.2597V8.90383C1.53179 4.71297 4.92915 1.3156 9.12001 1.3156H12.2923C14.7312 1.3156 16.7082 3.29267 16.7082 5.73151C16.7082 10.6279 16.6933 10.4225 17.0632 10.5981C17.2895 10.7054 17.3323 10.7054 17.5587 10.5981C17.93 10.4219 17.9136 10.6604 17.9136 5.42842C17.9136 0.350389 17.9192 0.454707 17.6332 0.254399C17.5166 0.172709 16.7827 0.165039 9.10363 0.165039H0.928002C0.782988 0.165039 0.643913 0.222646 0.541373 0.325186ZM3.02867 2.55454C2.71412 2.7097 2.68235 2.86206 2.68235 4.21573C2.68235 5.51789 2.71456 5.70948 2.9627 5.88327C3.07874 5.96458 3.63277 5.97263 9.1022 5.97263C13.3082 5.97263 15.1534 5.95477 15.2447 5.91319C15.5338 5.78148 15.5577 5.65458 15.5577 4.24931C15.5577 3.1805 15.5427 2.9248 15.4719 2.78788C15.2982 2.45208 15.5757 2.46605 9.10807 2.46742C3.85778 2.46852 3.1835 2.47816 3.02867 2.55454ZM14.4071 4.24679C14.4071 4.56451 14.1495 4.82207 13.8318 4.82207H9.1474H4.46298C4.14526 4.82207 3.8877 4.56451 3.8877 4.24679C3.8877 3.92907 4.14526 3.67151 4.46298 3.67151H9.1474H13.8318C14.1495 3.67151 14.4071 3.92907 14.4071 4.24679ZM2.9627 7.26734C2.71456 7.44113 2.68235 7.63273 2.68235 8.93489C2.68235 10.7463 2.62049 10.6845 4.43191 10.6845C5.73407 10.6845 5.92567 10.6522 6.09946 10.4041C6.17638 10.2943 6.18882 10.083 6.18882 8.88744V7.72476C6.18882 7.57974 6.13121 7.44067 6.02867 7.33813C5.92613 7.23559 5.78706 7.17798 5.64204 7.17798H4.47936C3.28382 7.17798 3.0725 7.19042 2.9627 7.26734ZM7.55432 7.33813C7.45178 7.44067 7.39417 7.57974 7.39417 7.72476V8.88744C7.39417 10.083 7.40661 10.2943 7.48353 10.4041C7.65732 10.6522 7.84891 10.6845 9.15108 10.6845C10.5137 10.6845 10.6607 10.6531 10.8142 10.3295C10.9333 10.0785 10.9414 7.81994 10.8243 7.53953C10.6759 7.18439 10.6453 7.17798 9.10363 7.17798H7.94094C7.79593 7.17798 7.65686 7.23559 7.55432 7.33813ZM12.3482 7.24072C12.076 7.37276 12.0512 7.51132 12.0512 8.9013C12.0512 10.3529 12.0751 10.467 12.4092 10.6066C12.6769 10.7184 14.9319 10.7184 15.1997 10.6066C15.5337 10.467 15.5577 10.3529 15.5577 8.9013C15.5577 7.49603 15.5338 7.36914 15.2447 7.23743C15.0757 7.16045 12.5076 7.1633 12.3482 7.24072ZM5.03826 8.90382C5.03826 9.22154 4.7807 9.4791 4.46298 9.4791C4.14526 9.4791 3.8877 9.22154 3.8877 8.90382C3.8877 8.58611 4.14526 8.32854 4.46298 8.32854C4.7807 8.32854 5.03826 8.58611 5.03826 8.90382ZM9.69529 8.90382C9.69529 9.22154 9.43773 9.4791 9.12001 9.4791C8.80229 9.4791 8.54473 9.22154 8.54473 8.90382C8.54473 8.58611 8.80229 8.32854 9.12001 8.32854C9.43773 8.32854 9.69529 8.58611 9.69529 8.90382ZM14.4071 8.90382C14.4071 9.22154 14.1495 9.4791 13.8318 9.4791H13.8044H13.777C13.4593 9.4791 13.2018 9.22154 13.2018 8.90382C13.2018 8.58611 13.4593 8.32854 13.777 8.32854H13.8044H13.8318C14.1495 8.32854 14.4071 8.58611 14.4071 8.90382ZM2.97716 11.9397C2.88315 11.997 2.77839 12.1238 2.74431 12.2215C2.6481 12.4975 2.66103 14.7462 2.7602 14.9835C2.8998 15.3175 3.01387 15.3415 4.4655 15.3415C5.87077 15.3415 5.99766 15.3176 6.12937 15.0285C6.21495 14.8407 6.20969 12.3243 6.12335 12.1348C5.99722 11.858 5.86896 11.835 4.45202 11.8352C3.26705 11.8354 3.13244 11.8449 2.97716 11.9397ZM7.65858 11.9288C7.57798 11.9788 7.48556 12.0779 7.45312 12.1491C7.37286 12.3252 7.37329 14.8522 7.45361 15.0285C7.58533 15.3176 7.71222 15.3415 9.11749 15.3415C10.5691 15.3415 10.6832 15.3175 10.8228 14.9835C10.9346 14.7157 10.9346 12.4608 10.8228 12.193C10.6829 11.8583 10.5702 11.8349 9.10905 11.8365C7.99158 11.8377 7.78415 11.8509 7.65858 11.9288ZM12.4073 11.8842C12.3471 11.9103 12.2484 11.9865 12.1882 12.0535C12.0846 12.1686 12.0786 12.2524 12.0786 13.5896V14.8111C12.0786 14.935 12.1258 15.0542 12.2106 15.1445C12.4752 15.4261 12.9894 15.3641 13.1405 15.0324C13.178 14.9502 13.2018 14.5368 13.2018 13.9688V13.2681C13.2018 13.13 13.2858 13.0059 13.414 12.9546C13.8214 12.7915 13.9224 12.2905 13.6075 11.9944C13.4843 11.8786 13.4088 11.8608 12.992 11.8495C12.7307 11.8425 12.4676 11.8581 12.4073 11.8842ZM17.941 11.924C16.8346 12.087 15.9035 12.3671 15.3659 12.6986C15.0146 12.9153 14.6783 13.2656 14.5382 13.5609C14.4526 13.7412 14.4082 13.9384 14.4082 14.138V17.67V21.1887C14.4082 21.3972 14.4538 21.6031 14.5418 21.7921C14.8844 22.528 15.9183 23.109 17.3657 23.379C18.1013 23.5162 20.027 23.5162 20.7626 23.379C22.2099 23.109 23.2439 22.528 23.5865 21.7921C23.6745 21.6031 23.7201 21.3972 23.72 21.1887L23.7194 17.67C23.7188 14.0181 23.7138 13.8238 23.6146 13.6052C23.2929 12.8968 22.3885 12.3578 21.0365 12.0687C20.5048 11.955 20.2269 11.9313 19.2559 11.9169C18.6231 11.9074 18.0314 11.9106 17.941 11.924ZM5.03826 13.5883V13.6156C5.03826 13.9334 4.7807 14.1909 4.46298 14.1909C4.14526 14.1909 3.8877 13.9334 3.8877 13.6156V13.5883V13.5609C3.8877 13.2431 4.14526 12.9856 4.46298 12.9856C4.7807 12.9856 5.03826 13.2431 5.03826 13.5609V13.5883ZM9.69529 13.5883V13.6156C9.69529 13.9334 9.43773 14.1909 9.12001 14.1909C8.80229 14.1909 8.54473 13.9334 8.54473 13.6156V13.5883V13.5609C8.54473 13.2431 8.80229 12.9856 9.12001 12.9856C9.43773 12.9856 9.69529 13.2431 9.69529 13.5609V13.5883ZM19.8259 13.0445C21.2636 13.1791 22.5706 13.7248 22.5706 14.1905C22.5706 14.3658 22.0969 14.7234 21.6198 14.908C20.8086 15.222 20.2651 15.3068 19.0641 15.3068C17.8632 15.3068 17.3197 15.222 16.5085 14.908C16.0314 14.7234 15.5577 14.3658 15.5577 14.1905C15.5577 13.7491 16.8493 13.1857 18.1734 13.0496C18.8585 12.9793 19.1208 12.9785 19.8259 13.0445ZM15.9455 15.9233C16.9566 16.3356 17.8151 16.492 19.0666 16.492C20.3053 16.492 21.1865 16.3342 22.138 15.9418C22.3541 15.8527 22.5398 15.7798 22.5508 15.7798C22.5617 15.7798 22.5706 15.9628 22.5706 16.1865C22.5706 16.5435 22.5534 16.6137 22.4296 16.7608C22.0924 17.1616 20.9607 17.5352 19.7534 17.6444C18.1643 17.788 16.2035 17.3607 15.6986 16.7608C15.5749 16.6137 15.5577 16.5435 15.5577 16.1865C15.5577 15.9628 15.5657 15.7798 15.5756 15.7798C15.5855 15.7798 15.7519 15.8444 15.9455 15.9233ZM3.02867 16.5804C2.71412 16.7356 2.68235 16.888 2.68235 18.2416C2.68235 19.5438 2.71456 19.7354 2.9627 19.9092C3.0725 19.9861 3.28382 19.9985 4.47936 19.9985H5.64204C5.78706 19.9985 5.92613 19.9409 6.02867 19.8384C6.13121 19.7358 6.18882 19.5968 6.18882 19.4517V18.2891C6.18882 16.7474 6.18241 16.7168 5.82727 16.5684C5.54801 16.4518 3.26979 16.4615 3.02867 16.5804ZM7.74361 16.5708C7.40146 16.7197 7.39417 16.7555 7.39417 18.2891V19.4517C7.39417 19.5968 7.45178 19.7358 7.55432 19.8384C7.65686 19.9409 7.79593 19.9985 7.94094 19.9985H9.10363C10.2992 19.9985 10.5105 19.9861 10.6203 19.9092C10.8684 19.7354 10.9006 19.5438 10.9006 18.2416C10.9006 16.428 10.9641 16.491 9.13913 16.4942C8.23178 16.4958 7.87039 16.5156 7.74361 16.5708ZM12.3972 16.5723C12.0759 16.712 12.0512 16.8335 12.0512 18.2752C12.0512 19.3855 12.0642 19.5928 12.1424 19.7251C12.3297 20.0421 12.781 20.099 13.0416 19.8384C13.1442 19.7358 13.2018 19.5968 13.2018 19.4517V18.2891C13.2018 16.7474 13.1954 16.7168 12.8402 16.5684C12.6203 16.4765 12.6171 16.4766 12.3972 16.5723ZM5.03826 18.2727C5.03826 18.5904 4.7807 18.848 4.46298 18.848C4.14526 18.848 3.8877 18.5904 3.8877 18.2727C3.8877 17.955 4.14526 17.6974 4.46298 17.6974C4.7807 17.6974 5.03826 17.955 5.03826 18.2727ZM9.69529 18.2727C9.69529 18.5904 9.43773 18.848 9.12001 18.848C8.80229 18.848 8.54473 18.5904 8.54473 18.2727C8.54473 17.955 8.80229 17.6974 9.12001 17.6974C9.43773 17.6974 9.69529 17.955 9.69529 18.2727ZM16.299 18.3979C17.3436 18.7547 18.2372 18.8774 19.4477 18.8303C20.5666 18.7867 21.6399 18.5483 22.3652 18.1824C22.4594 18.1348 22.5706 18.2033 22.5706 18.3088V18.5107C22.5706 19.0566 22.502 19.1523 21.8963 19.4498C21.1283 19.8272 20.2442 19.9985 19.0641 19.9985C17.8841 19.9985 17 19.8272 16.232 19.4498C15.6263 19.1523 15.5577 19.0566 15.5577 18.5107V18.3086C15.5577 18.203 15.6688 18.1345 15.7631 18.1818C15.8762 18.2386 16.1173 18.3358 16.299 18.3979ZM16.3427 20.7456C17.3786 21.1146 18.6183 21.262 19.8031 21.1571C20.628 21.084 21.5696 20.8658 22.1597 20.6108C22.3445 20.5309 22.5521 20.6644 22.5603 20.8655L22.5636 20.9459C22.5724 21.1615 22.4854 21.37 22.3259 21.5155C22.0269 21.7883 21.4144 22.0414 20.653 22.2067C19.9028 22.3696 18.2254 22.3696 17.4753 22.2067C16.7346 22.0459 16.1107 21.7909 15.8099 21.5261C15.6496 21.385 15.5577 21.1817 15.5577 20.9681V20.8698V20.6591C15.5577 20.5533 15.666 20.482 15.7631 20.5239C15.8762 20.5725 16.1369 20.6723 16.3427 20.7456Z" fill="url(#paint0_linear_411_2103)"/>
<defs>
<linearGradient id="paint0_linear_411_2103" x1="12.7987" y1="0.752231" x2="20.0325" y2="21.2892" gradientUnits="userSpaceOnUse">
<stop stop-color="#FFDC5E"/>
<stop offset="1" stop-color="#F6BB1A"/>
</linearGradient>
</defs>
</svg>

<svg xmlns="http://www.w3.org/2000/svg" fill="none" viewBox="0.38 0.17 23.34 23.32"><path fill-rule="evenodd" clip-rule="evenodd" d="M.541.325a.547.547 0 0 0-.16.387v10.486c0 7.586.018 10.751.06 10.843a.61.61 0 0 0 .214.222c.141.084.653.091 6.136.091 5.484 0 5.996-.007 6.137-.09a.58.58 0 0 0 .114-.9.547.547 0 0 0-.387-.16H7.207a5.675 5.675 0 0 1-5.675-5.675V8.904A7.588 7.588 0 0 1 9.12 1.316h3.172a4.416 4.416 0 0 1 4.416 4.416c0 4.896-.015 4.69.355 4.866.227.107.27.107.496 0 .371-.176.355.062.355-5.17 0-5.078.005-4.973-.28-5.174-.117-.081-.851-.089-8.53-.089H.928a.547.547 0 0 0-.387.16Zm2.488 2.23c-.315.155-.347.307-.347 1.66 0 1.303.033 1.494.28 1.668.117.082.67.09 6.14.09 4.206 0 6.051-.018 6.143-.06.289-.132.313-.258.313-1.664 0-1.068-.015-1.324-.086-1.461-.174-.336.104-.322-6.364-.32-5.25 0-5.925.01-6.08.087Zm11.378 1.692a.575.575 0 0 1-.575.575H4.463a.575.575 0 1 1 0-1.15h9.369c.317 0 .575.257.575.575ZM2.963 7.267c-.248.174-.28.366-.28 1.668 0 1.811-.063 1.75 1.749 1.75 1.302 0 1.494-.033 1.667-.28.077-.11.09-.322.09-1.518V7.725a.547.547 0 0 0-.547-.547H4.479c-1.195 0-1.407.012-1.516.09Zm4.591.071a.547.547 0 0 0-.16.387v1.162c0 1.196.013 1.407.09 1.517.173.248.365.28 1.667.28 1.363 0 1.51-.03 1.663-.354.12-.252.127-2.51.01-2.79-.148-.356-.179-.362-1.72-.362H7.94a.547.547 0 0 0-.387.16Zm4.794-.097c-.272.132-.297.27-.297 1.66 0 1.452.024 1.566.358 1.706.268.111 2.523.111 2.79 0 .335-.14.359-.254.359-1.706 0-1.405-.024-1.532-.313-1.664-.17-.077-2.737-.074-2.897.004Zm-7.31 1.663a.575.575 0 1 1-1.15 0 .575.575 0 0 1 1.15 0Zm4.657 0a.575.575 0 1 1-1.15 0 .575.575 0 0 1 1.15 0Zm4.712 0a.575.575 0 0 1-.575.575h-.055a.575.575 0 0 1 0-1.15h.055c.317 0 .575.257.575.575ZM2.977 11.94a.633.633 0 0 0-.233.282c-.096.276-.083 2.524.016 2.761.14.335.254.358 1.705.358 1.406 0 1.533-.023 1.664-.313.086-.187.08-2.704-.006-2.893-.126-.277-.254-.3-1.671-.3-1.185 0-1.32.01-1.475.105Zm4.682-.011a.617.617 0 0 0-.206.22c-.08.176-.08 2.703 0 2.88.132.289.26.313 1.664.313 1.452 0 1.566-.024 1.706-.359.112-.267.112-2.522 0-2.79-.14-.335-.253-.358-1.714-.357-1.117.002-1.325.015-1.45.093Zm4.748-.045a.792.792 0 0 0-.219.17c-.103.115-.11.198-.11 1.536v1.221c0 .124.048.243.133.334.264.281.778.22.93-.113.037-.082.06-.495.06-1.063v-.7c0-.139.085-.263.213-.314a.573.573 0 0 0 .194-.96c-.124-.116-.2-.134-.616-.145-.261-.008-.524.008-.585.034Zm5.534.04c-1.106.163-2.037.443-2.575.775-.351.216-.688.567-.828.862-.085.18-.13.377-.13.577v7.051c0 .208.046.414.134.603.342.736 1.376 1.317 2.824 1.587.735.137 2.661.137 3.397 0 1.447-.27 2.48-.851 2.823-1.587.088-.189.134-.395.134-.603V17.67c-.001-3.652-.006-3.846-.105-4.065-.322-.708-1.226-1.247-2.578-1.536-.532-.114-.81-.138-1.781-.152-.633-.01-1.225-.006-1.315.007ZM5.038 13.588v.028a.575.575 0 1 1-1.15 0v-.055a.575.575 0 1 1 1.15 0v.027Zm4.657 0v.028a.575.575 0 1 1-1.15 0v-.055a.575.575 0 1 1 1.15 0v.027Zm10.13-.543c1.439.134 2.746.68 2.746 1.146 0 .175-.474.532-.951.717-.811.314-1.355.399-2.556.399-1.2 0-1.744-.085-2.555-.399-.478-.185-.951-.542-.951-.717 0-.442 1.291-1.005 2.615-1.141.686-.07.948-.072 1.653-.006Zm-3.88 2.878c1.012.413 1.87.569 3.122.569 1.238 0 2.12-.158 3.071-.55.216-.09.402-.162.413-.162.01 0 .02.183.02.406 0 .358-.018.428-.141.575-.338.4-1.47.774-2.677.883-1.589.144-3.55-.283-4.054-.883-.124-.147-.141-.217-.141-.575 0-.223.008-.406.018-.406.01 0 .176.064.37.143ZM3.03 16.58c-.315.156-.347.308-.347 1.662 0 1.302.033 1.493.28 1.667.11.077.322.09 1.517.09h1.163a.547.547 0 0 0 .547-.547v-1.163c0-1.542-.007-1.572-.362-1.72-.279-.117-2.557-.107-2.798.011Zm4.715-.01c-.343.15-.35.186-.35 1.72v1.162a.547.547 0 0 0 .547.546h1.163c1.195 0 1.407-.012 1.516-.089.248-.174.28-.365.28-1.667 0-1.814.064-1.751-1.76-1.748-.908.002-1.27.022-1.396.077Zm4.653.002c-.321.14-.346.262-.346 1.703 0 1.11.013 1.318.091 1.45a.58.58 0 0 0 .9.113.547.547 0 0 0 .16-.386v-1.163c0-1.542-.007-1.572-.362-1.72-.22-.092-.223-.092-.443.003Zm-7.359 1.7a.575.575 0 1 1-1.15 0 .575.575 0 0 1 1.15 0Zm4.657 0a.575.575 0 1 1-1.15 0 .575.575 0 0 1 1.15 0Zm6.604.126c1.045.357 1.938.48 3.149.432 1.119-.043 2.192-.282 2.917-.648a.142.142 0 0 1 .206.127v.202c0 .546-.069.641-.675.939-.768.377-1.652.549-2.832.549s-2.064-.172-2.832-.55c-.606-.297-.674-.392-.674-.938v-.202c0-.106.11-.175.205-.127.113.057.354.154.536.216Zm.044 2.348c1.036.369 2.275.516 3.46.411.825-.073 1.767-.291 2.357-.546a.289.289 0 0 1 .4.255l.004.08a.73.73 0 0 1-.238.57c-.3.272-.912.525-1.673.69-.75.164-2.428.164-3.178 0-.74-.16-1.364-.415-1.665-.68a.743.743 0 0 1-.252-.558v-.308c0-.107.108-.178.205-.136.113.049.374.148.58.222Z" fill="url(#a)"/><defs><linearGradient id="a" x1="12.799" y1=".752" x2="20.032" y2="21.289" gradientUnits="userSpaceOnUse"><stop stop-color="#FFDC5E"/><stop offset="1" stop-color="#F6BB1A"/></linearGradient></defs></svg>
